X:1
T:Щедрик (Shchedryk)
T:Mykola Leontovych
%%score [ ( 1 2 ) ( 3 4 ) ]
L:1/8
Q:1/4=180
M:3/4
K:A
V:1 treble nm="s"
V:2 treble 
V:3 bass nm="Staff-1"
V:4 bass 
V:1
 A2 GA F2 |: A2 GA F2 | A2 GA F2 | A2 GA F2 | A2 GA F2 | A2 GA F2 | A2 GA F2 | A2 GA F2 | %8
w: Shche- dryk shche- dryk,|shche- dri- voch- ka,|pry- le- ti- la,|la- sti- voch- ka,|sta- la so- bi|shche- be- ta- ty,|hos- po- dar- ya,|vy- kly- ka- ty:|
w: ||||||||
 A2 GA F2 | A2 GA F2 | A2 GA F2 | A2 GA F2 | A2 GA F2 | A2 GA F2 | A2 GA F2 | A2 GA F2 | c2 Bc A2 | %17
w: "Vyy- dy, vyy- dy,|hos- po- dar- yu,|po- dy- vy- sya,|na ko- sha- ru,|tam o- vech- ky|po- ko- ty- lys'|a yah- nyich- ky|na- ro- dy- lys',|V~te- be to- var|
w: |||||||||
 c2 Bc A2 | c2 Bc A2 | c2 Bc A2 | f2 ff ed | c2 cc BA | B2 BB cB | F2 FF F2 | C^D ^EF GA | %25
w: ves' ko- ro- shyy,|bu- desh' ma- ty|mir- ku hro- shey,|V~te- be to- var *|ves' kho- ro- shyy *|bu- desh' ma ty *|mir- ku hro- shey|V~te- * be to- var *|
w: ||||||||
 Bc B2 A2 | C^D ^EF GA | Bc B2 A2 | A2 GA F2 | A2 GA F2 | A2 GA F2 | A2 GA F2 |1 A2 GA F2 :|2 %33
w: ves' kho- ro- shyy,|bu- * desh' ma- ty *|mir- ku hro- shey,|khoch ne hro- shey,|to po- lo- var,|v~te- be zhin- ka|chor- no- bro va|Shche- drik shche- drik,|
w: ||||||||
 F4- F2 || F4- F2 | F4- !fermata!F2 |"^ad lib."[Q:1/4=132] c2[Q:1/4=120] Bc[Q:1/4=90] F2 |] %37
w: |||la- sti- voch- ka.|
w: m _|_ _|||
V:2
 x6 |: x6 | x6 | x6 | F4- F2 | E4- E2 | D4- D2 | C4- C2 | F4- F2 | E4- E2 | D4- D2 | C4- C2 | %12
w: ||||||||||||
w: ||||sta- *|la *|so- *|bi *|shche- *|be- *|ba- *|ty *|
w: ||||||||||||
 F2 FF F2 | F2 FF F2 | F2 FF F2 | F2 FF F2 | A2 GA F2 | A2 GA F2 | A2 GA F2 | A2 GA F2 | F2 FF FF | %21
w: |||||||||
w: tam o- vech- ky|po- ko- ty- lys'|a yah- nyich- ky|na- ro dy- lys'|V~te- be to- var|ves' ko- ro- shyy,|bu- desh' ma- ty|mir- ku hro- shey,|V~te- be to- var *|
w: |||||||||
 F2 FF FF | F2 FF FF | F2 FF F2 | C4- C2 | ^D2 ^E2 F2 | C4- C2 | ^D2 ^E2 F2 | C4- C2 | C4- C2 | %30
w: |||||||||
w: ves' kho- ro- shyy *|bu- desh' ma- ty *|mir- ku hro- shey|V~te- *|be zhin- ka|chor- *|no- bro- va|m- _|_ _|
w: |||||||||
 E4- E2 | D4- D2 |1 C4- C2 :|2 C4- C2 || C4- C2 | C4- C2 | A2 GA F2 |] %37
w: |||||||
w: |||||||
w: |m _|_ _|m _|_ _|||
V:3
 z6 |: z6 | z6 | z6 | z6 | z6 | z6 | z6 | D4- D2 | C4- C2 | B,4- B,2 | F,4- F,2 | B,2 B,B, B,2 | %13
w: ||||||||shche- *|be- *|ba- *|ty *|tam o- vech- ky|
 C2 CC C2 | D2 DD D2 | C2 CC C2 | C2 CC C2 | ^D2 DD D2 | E2 DD C2 | FE DD C2 | C2 DD CB, | %21
w: po- ko- ty- lys'|a yah- nyich- ky|na- ro- dy- lys',|V~te- be to- var|ves' ko- ro- shyy,|bu- desh' ma- ty|mir- * ku hro- shey,|V~te- be to- var *|
 C2 CC CC | D2 DD ED | C2 CC C2 | A,2 G,A, F,2 | A,2 G,A, F,2 | A,2 G,A, F,2 | A,2 G,A, F,2 | %28
w: ves' kho- ro- shyy *|bu- desh' ma- ty *|mir- ku hro- shey|khoch ne hro- shey|to po- lo- va:|V~te- be zhin- ka|chor- no- bro- va|
 F,4- F,2 | F,4- F,2 | F,4- F,2 | F,4- F,2 |1 F,4- F,2 :|2 A,2 G,A, F,2 || A,2 G,A, F,2 | %35
w: m _|_ _||m _|_ _|Shche dryk shche- dryk|shche- dri- voch- ka,|
 A,2 G,A, F,2 | z6 |] %37
w: pry- le- ti- la||
V:4
 x6 |: x6 | x6 | x6 | x6 | x6 | x6 | x6 | x6 | x6 | x6 | x6 | D,2 D,D, D,2 | F,2 F,F, F,2 | %14
w: ||||||||||||||
w: ||||||||||||tam o- vech- ky|po- ko- ty- lys'|
 B,2 B,B, B,2 | F,2 F,F, F,2 | F,2 F,F, F,2 | F,2 F,F, F,2 | F,2 F,F, F,2 | F,2 F,F, F,2 | %20
w: ||||||
w: a yah- nyich- ky|na- ro- dy- lys,|V~te- be to- var|ves' ko- ro- shyy,|bu- desh' ma- ty|mir- ku hro- shey|
 A,2 G,A, F,F, | A,2 G,A, F,F, | A,2 G,A, F,F, | A,2 G,A, F,2 | C,4- C,2 | C,4- C,2 | C,4- C,2 | %27
w: |||||||
w: V~te- be to- var *|ves' kho- ro- shyy *|bu- desh' ma- ty *|mir- ku hro- shey|V~te- *|be- *|chin- *|
 C,4 D,2 | E,4- E,2 | D,4- D,2 | C,4- C,2 | B,,4- B,,2 |1 F,,4- F,,2 :|2 F,,4- F,,2 || F,,4- F,,2 | %35
w: ||||||||
w: ka- *|m *|||m _|_ _|m _|_ _|
 F,,4- F,,2 | x6 |] %37
w: ||
w: ||

